templates/themes/base/img/icon/female_no_picture-150.svg

<svg enable-background="new 0 0 40 40" height="150" viewBox="0 0 40 40" width="150" xmlns="http://www.w3.org/2000/svg"><path d="m4.509 38.5c.351-9.3 10.464-10.99 10.568-11.006l9.923.006c-.029.002 2.641.452 5.263 2.1 3.331 2.094 5.088 5.086 5.229 8.9z" fill="#8bb7f0"/><path d="m24.915 28c.954.172 9.398 1.922 10.046 10h-29.922c.647-8.115 9.106-9.834 10.045-10zm.085-1h-10s-11 1.721-11 12h32c0-10.243-11-12-11-12z" fill="#4e7ab5"/><path d="m20 33.5c-2.931 0-4.276-2.726-4.5-3.23v-7.02h9v7.021c-.227.521-1.547 3.229-4.5 3.229z" fill="#e8d47b"/><path d="m24 23.75v6.413c-.291.623-1.501 2.837-4 2.837-2.501 0-3.712-2.219-4-2.837v-6.413zm1-1h-10v7.621s1.407 3.629 5 3.629 5-3.629 5-3.629z" fill="#ba9b48"/><path d="m20 27.5c-.604 0-1.172-.218-1.641-.63l-.09-.08-.117-.03c-3.328-.844-5.652-3.83-5.652-7.26v-9.298c0-1.827 1.486-3.313 3.312-3.313h8.375c1.827 0 3.312 1.486 3.312 3.313v9.298c0 3.43-2.324 6.416-5.652 7.26l-.117.03-.09.08c-.468.412-1.036.63-1.64.63z" fill="#ffeea3"/><path d="m24.187 7.389c1.551 0 2.813 1.262 2.813 2.813v9.298c0 3.201-2.169 5.987-5.275 6.776l-.233.059-.181.159c-.263.231-.703.506-1.311.506s-1.048-.275-1.311-.506l-.181-.159-.233-.059c-3.106-.789-5.275-3.575-5.275-6.776v-9.298c0-1.551 1.262-2.813 2.813-2.813zm0-1h-8.375c-2.105 0-3.812 1.707-3.812 3.813v9.298c0 3.737 2.566 6.866 6.029 7.745.528.464 1.213.755 1.971.755s1.443-.291 1.971-.755c3.463-.879 6.029-4.008 6.029-7.745v-9.298c0-2.106-1.707-3.813-3.813-3.813z" fill="#ba9b48"/><path d="m28.73 26.5c-1.792 0-3.428-.599-4.319-.998 1.095-.907 3.089-3.021 3.089-6.383v-4.852c0-2.718-2.599-4.476-2.709-4.55l-.454-.302-.262.48c-.074.135-1.864 3.322-6.48 3.959-2.531.35-5.094 2.129-5.094 4.855l1 .058-1-.017v.367c0 3.396 1.963 5.475 3.068 6.376-.923.401-2.549 1.004-4.001 1.004-2.407 0-3.707-1.016-4.226-1.554.938-.857 3.191-3.101 3.191-4.873 0-.96-.231-2.042-.477-3.188-.273-1.273-.556-2.592-.556-3.882 0-7.469 4.895-11.5 9.5-11.5 4.372 0 5.718 2.438 5.773 2.542l.141.265.302.003c3.022.001 6.284 2.94 6.284 7.69 0 1.551-.273 3.055-.537 4.509-.231 1.272-.449 2.475-.449 3.565 0 2.114 1.997 3.998 2.999 4.81-.864.577-2.706 1.616-4.783 1.616z" fill="#ffc49c"/><path d="m19 2c4.035 0 5.282 2.187 5.327 2.269l.279.542h.609c2.783 0 5.785 2.749 5.785 7.189 0 1.506-.269 2.987-.529 4.42-.235 1.295-.457 2.519-.457 3.654 0 2 1.533 3.744 2.654 4.751-.919.533-2.355 1.175-3.938 1.175-1.3 0-2.518-.334-3.398-.661 1.169-1.154 2.668-3.219 2.668-6.219v-4.852c0-2.984-2.813-4.886-2.933-4.966l-.913-.606-.52.965c-.017.031-1.716 3.094-6.108 3.7-2.746.379-5.526 2.339-5.526 5.35v.042.367c0 3.024 1.472 5.067 2.642 6.213-.918.342-2.072.667-3.075.667-1.774 0-2.882-.586-3.487-1.059 1.136-1.095 2.952-3.12 2.952-4.867 0-1.013-.237-2.12-.488-3.293-.267-1.251-.544-2.545-.544-3.781 0-7.144 4.637-11 9-11m0-1c-5.224 0-10 4.601-10 12 0 2.52 1.032 5.133 1.032 7.074s-3.384 4.818-3.384 4.818 1.353 2.108 4.919 2.108c2.321 0 4.982-1.414 4.982-1.414s-3.549-2.075-3.549-6.466c0-.312 0-.367 0-.367v.016s0-.012 0-.058c0-2.584 2.548-4.068 4.662-4.36 4.946-.683 6.851-4.216 6.851-4.216s2.487 1.652 2.487 4.133v4.852c0 4.307-3.544 6.467-3.544 6.467s2.424 1.413 5.274 1.413c3.086 0 5.622-2.108 5.622-2.108s-3.338-2.287-3.338-4.818c0-2.249.986-5.093.986-8.074 0-5.057-3.463-8.189-6.784-8.189 0 0-1.449-2.811-6.216-2.811z" fill="#a16a4a"/></svg>

<?xml version="1.0" encoding="iso-8859-1"?>
<!-- Generator: Adobe Illustrator 19.2.1, SVG Export Plug-In . SVG Version: 6.00 Build 0)  -->
<svg xmlns="http://www.w3.org/2000/svg" xmlns:xlink="http://www.w3.org/1999/xlink" version="1.1" id="Layer_1" x="0px" y="0px" viewBox="0 0 40 40" style="enable-background:new 0 0 40 40;" xml:space="preserve" width="150px" height="150px">
<g>
	<g>
		<path style="fill:#8BB7F0;" d="M4.509,38.5c0.351-9.3,10.464-10.99,10.568-11.006L25,27.5c-0.029,0.002,2.641,0.452,5.263,2.1    c3.331,2.094,5.088,5.086,5.229,8.9H4.509z"/>
		<path style="fill:#4E7AB5;" d="M24.915,28c0.954,0.172,9.398,1.922,10.046,10H5.039c0.647-8.115,9.106-9.834,10.045-10H24.915     M25,27H15c0,0-11,1.721-11,12h32C36,28.757,25,27,25,27L25,27z"/>
	</g>
</g>
<g>
	<path style="fill:#E8D47B;" d="M20,33.5c-2.931,0-4.276-2.726-4.5-3.23v-7.02h9v7.021C24.273,30.792,22.953,33.5,20,33.5z"/>
	<path style="fill:#BA9B48;" d="M24,23.75v6.413C23.709,30.786,22.499,33,20,33c-2.501,0-3.712-2.219-4-2.837V23.75H24 M25,22.75H15   v7.621c0,0,1.407,3.629,5,3.629s5-3.629,5-3.629V22.75L25,22.75z"/>
</g>
<g>
	<g>
		<path style="fill:#FFEEA3;" d="M20,27.5c-0.604,0-1.172-0.218-1.641-0.63l-0.09-0.08l-0.117-0.03    C14.824,25.916,12.5,22.93,12.5,19.5v-9.298c0-1.827,1.486-3.313,3.312-3.313h8.375c1.827,0,3.312,1.486,3.312,3.313V19.5    c0,3.43-2.324,6.416-5.652,7.26l-0.117,0.03l-0.09,0.08C21.172,27.282,20.604,27.5,20,27.5z"/>
	</g>
	<g>
		<path style="fill:#BA9B48;" d="M24.187,7.389c1.551,0,2.813,1.262,2.813,2.813V19.5c0,3.201-2.169,5.987-5.275,6.776l-0.233,0.059    l-0.181,0.159C21.048,26.725,20.608,27,20,27s-1.048-0.275-1.311-0.506l-0.181-0.159l-0.233-0.059    C15.169,25.487,13,22.701,13,19.5v-9.298c0-1.551,1.262-2.813,2.813-2.813H24.187 M24.187,6.389h-8.375    C13.707,6.389,12,8.096,12,10.202V19.5c0,3.737,2.566,6.866,6.029,7.745C18.557,27.709,19.242,28,20,28    c0.758,0,1.443-0.291,1.971-0.755C25.434,26.366,28,23.237,28,19.5v-9.298C28,8.096,26.293,6.389,24.187,6.389L24.187,6.389z"/>
	</g>
</g>
<g>
	<path style="fill:#FFC49C;" d="M28.73,26.5c-1.792,0-3.428-0.599-4.319-0.998c1.095-0.907,3.089-3.021,3.089-6.383v-4.852   c0-2.718-2.599-4.476-2.709-4.55l-0.454-0.302l-0.262,0.48c-0.074,0.135-1.864,3.322-6.48,3.959   c-2.531,0.35-5.094,2.129-5.094,4.855l1,0.058l-1-0.017v0.367c0,3.396,1.963,5.475,3.068,6.376   c-0.923,0.401-2.549,1.004-4.001,1.004c-2.407,0-3.707-1.016-4.226-1.554c0.938-0.857,3.191-3.101,3.191-4.873   c0-0.96-0.231-2.042-0.477-3.188C9.783,15.609,9.5,14.29,9.5,13c0-7.469,4.895-11.5,9.5-11.5c4.372,0,5.718,2.438,5.773,2.542   l0.141,0.265l0.302,0.003C28.238,4.311,31.5,7.25,31.5,12c0,1.551-0.273,3.055-0.537,4.509c-0.231,1.272-0.449,2.475-0.449,3.565   c0,2.114,1.997,3.998,2.999,4.81C32.649,25.461,30.807,26.5,28.73,26.5z"/>
	<g>
		<path style="fill:#A16A4A;" d="M19,2c4.035,0,5.282,2.187,5.327,2.269l0.279,0.542h0.609C27.998,4.811,31,7.56,31,12    c0,1.506-0.269,2.987-0.529,4.42c-0.235,1.295-0.457,2.519-0.457,3.654c0,2,1.533,3.744,2.654,4.751    C31.749,25.358,30.313,26,28.73,26c-1.3,0-2.518-0.334-3.398-0.661C26.501,24.185,28,22.12,28,19.12v-4.852    c0-2.984-2.813-4.886-2.933-4.966l-0.913-0.606l-0.52,0.965c-0.017,0.031-1.716,3.094-6.108,3.7C14.78,13.74,12,15.7,12,18.711    v0.042v0.367c0,3.024,1.472,5.067,2.642,6.213C13.724,25.675,12.57,26,11.567,26c-1.774,0-2.882-0.586-3.487-1.059    c1.136-1.095,2.952-3.12,2.952-4.867c0-1.013-0.237-2.12-0.488-3.293C10.277,15.53,10,14.236,10,13C10,5.856,14.637,2,19,2 M19,1    C13.776,1,9,5.601,9,13c0,2.52,1.032,5.133,1.032,7.074c0,1.941-3.384,4.818-3.384,4.818S8.001,27,11.567,27    c2.321,0,4.982-1.414,4.982-1.414S13,23.511,13,19.12c0-0.312,0-0.367,0-0.367v0.016c0,0,0-0.012,0-0.058    c0-2.584,2.548-4.068,4.662-4.36c4.946-0.683,6.851-4.216,6.851-4.216S27,11.787,27,14.268c0,1.073,0,3.09,0,4.852    c0,4.307-3.544,6.467-3.544,6.467S25.88,27,28.73,27c3.086,0,5.622-2.108,5.622-2.108s-3.338-2.287-3.338-4.818    C31.014,17.825,32,14.981,32,12c0-5.057-3.463-8.189-6.784-8.189C25.216,3.811,23.767,1,19,1L19,1z"/>
	</g>
</g>
</svg>
